public/fonts/pattern.svg

<svg height="35" viewBox="0 0 62 35" width="62" xmlns="http://www.w3.org/2000/svg"><path d="m814 363.614092 28.577334-16.114092-.886719-.5h5.845332l-.886719.5 28.350772 15.986338v-16.486338h1v35h-1v-15.486338l-27.464053 15.486338h-5.845332l-27.690615-15.614092zm59.61249 1.385908-28.61249-16.133915v32.26783zm-29.61249 16.006162v-32.012324l-28.385928 16.006162z" opacity=".02" transform="translate(-814 -347)"/></svg>

<svg width="62px" height="35px" viewBox="0 0 62 35" version="1.1" xmlns="http://www.w3.org/2000/svg" xmlns:xlink="http://www.w3.org/1999/xlink"><g stroke="none" stroke-width="1" fill="none" fill-rule="evenodd" opacity="0.02"><g transform="translate(-814.000000, -347.000000)" fill="#000000" fill-rule="nonzero"><path d="M814,363.614092 L842.577334,347.5 L841.690615,347 L847.535947,347 L846.649228,347.5 L875,363.486338 L875,347 L876,347 L876,382 L875,382 L875,366.513662 L847.535947,382 L841.690615,382 L814,366.385908 L814,363.614092 Z M873.61249,365 L845,348.866085 L845,381.133915 L873.61249,365 Z M844,381.006162 L844,348.993838 L815.614072,365 L844,381.006162 Z"></path></g></g></svg>
